<?xml version="1.0" encoding="UTF-8"?>
<map version="1.10" tiledversion="1.10.2" orientation="orthogonal" renderorder="right-down" width="50" height="13" tilewidth="16" tileheight="16" infinite="0" nextlayerid="3" nextobjectid="1">
 <properties>
  <property name="areaType" type="int" value="1"/>
  <property name="playerX" type="int" value="48"/>
  <property name="playerY" type="int" value="176"/>
  <property name="timer" type="int" value="300"/>
 </properties>
 <tileset firstgid="1" source="../tiled_assets/tsx/mtiles.tsx"/>
 <layer id="2" name="background" width="50" height="13" visible="0">
  <data encoding="csv">
1,1,1,1,1,1,1,1,1,1,1,1,1,1,1,1,1,1,1,1,1,1,1,1,86,87,87,87,88,1,1,1,1,1,1,1,1,1,1,1,1,1,1,1,1,1,1,86,87,88,
1,1,1,1,1,1,1,86,87,87,88,1,1,1,1,1,1,1,1,1,1,1,1,1,89,90,90,90,91,1,1,1,1,1,86,87,87,88,1,1,1,1,1,1,1,1,1,89,90,91,
1,86,87,88,1,1,1,89,90,90,91,1,1,1,86,87,87,88,1,1,1,1,86,87,88,1,1,1,1,1,86,87,88,1,89,90,90,91,1,1,1,86,87,87,87,88,1,1,1,1,
1,89,90,91,1,1,1,1,1,1,1,1,1,1,89,90,90,91,1,1,1,1,89,90,91,1,1,1,1,1,89,90,91,1,1,1,1,1,1,1,1,89,90,90,90,91,1,1,1,1,
1,1,1,1,1,1,1,1,1,1,1,1,1,1,1,1,1,1,1,1,1,1,1,1,1,1,1,1,1,1,1,1,1,1,1,1,1,1,1,1,1,1,1,1,1,1,1,1,1,1,
1,1,1,1,1,1,1,1,1,1,1,1,1,1,1,1,1,1,1,1,1,1,1,1,1,1,1,53,53,53,53,1,1,1,1,1,1,1,1,1,1,1,1,1,1,1,1,1,1,1,
1,1,45,45,45,1,1,1,1,1,1,1,1,1,1,1,1,1,1,1,1,1,1,1,1,1,1,1,1,1,1,72,1,1,1,1,1,1,1,1,1,1,1,1,1,1,1,1,1,1,
1,1,46,47,48,1,1,1,0,1,1,1,1,1,1,1,1,1,8,1,1,1,1,1,1,1,1,1,1,1,1,1,1,1,1,1,1,1,1,1,1,1,1,1,1,1,8,1,1,1,
1,45,49,49,49,45,1,0,0,8,1,1,1,1,1,1,1,6,10,9,1,1,8,1,1,1,1,1,1,1,1,12,12,12,12,12,12,12,12,1,1,1,1,1,1,6,10,9,1,1,
1,47,47,50,47,47,1,0,6,7,9,1,1,1,1,1,6,7,11,11,9,6,10,9,1,1,1,1,1,1,1,1,1,1,1,1,1,1,1,1,1,1,1,1,6,7,11,11,9,1,
4,47,47,51,47,47,5,6,10,11,11,9,3,4,5,6,10,11,11,10,11,11,11,7,9,1,1,1,1,1,1,1,1,1,1,1,1,1,1,1,1,1,1,6,10,11,11,10,11,9,
1,1,1,1,1,1,1,1,1,1,1,1,1,1,1,1,1,1,1,1,1,1,1,1,1,1,1,1,1,1,1,92,92,92,92,92,92,92,92,1,1,1,1,1,1,1,1,1,1,1,
1,1,1,1,1,1,1,1,1,1,1,1,1,1,1,1,1,1,1,1,1,1,1,1,1,1,1,1,1,1,1,93,93,93,93,93,93,93,93,1,1,1,1,1,1,1,1,1,1,1
</data>
 </layer>
 <layer id="1" name="foreground" width="50" height="13">
  <data encoding="csv">
1,1,1,1,1,1,1,1,1,1,1,1,1,1,1,1,1,1,1,1,1,1,1,1,1,1,1,1,1,1,1,1,1,1,1,1,1,1,1,1,1,1,1,1,1,1,1,1,1,1,
1,1,1,1,1,1,1,1,1,1,1,1,1,1,1,1,1,96,1,1,96,1,1,96,1,1,1,1,1,1,1,1,1,1,1,1,1,1,1,1,1,1,1,1,1,1,1,1,1,1,
1,1,1,1,1,1,1,1,1,1,1,1,1,1,1,1,1,1,1,1,1,1,1,1,1,1,1,1,1,1,1,1,1,1,1,1,1,1,1,1,1,1,1,1,1,1,1,1,1,1,
1,1,1,1,1,1,1,1,1,1,1,1,1,1,1,1,1,1,1,1,1,1,1,1,1,1,1,1,1,1,1,1,1,1,1,1,1,1,1,1,1,1,1,1,1,1,1,1,1,1,
1,1,1,1,1,1,1,1,1,1,1,1,1,1,1,96,1,1,96,1,1,96,1,1,1,1,1,1,1,1,1,1,1,1,1,1,1,1,1,1,1,1,1,1,1,1,1,1,1,1,
1,1,1,1,1,1,1,1,1,1,1,1,1,1,1,1,1,1,1,1,1,1,1,1,1,1,1,1,1,1,1,1,1,1,1,1,1,1,1,1,1,1,1,1,1,1,1,1,1,1,
1,1,1,1,1,1,1,1,1,1,1,1,1,1,1,1,1,1,1,1,1,1,1,1,1,1,1,60,60,60,60,1,1,1,1,1,1,1,1,1,1,76,1,1,1,1,1,1,1,1,
1,1,1,1,1,1,1,1,1,1,1,1,1,96,1,1,96,1,1,96,1,1,1,1,1,1,1,60,60,60,60,1,1,1,1,1,1,1,1,1,1,77,1,1,1,1,1,1,1,1,
1,1,1,1,1,1,1,1,1,1,1,1,1,1,1,1,1,1,1,1,1,1,1,1,1,19,20,60,60,60,60,1,1,1,1,1,1,1,1,1,76,78,1,1,1,1,1,1,1,1,
1,1,1,1,1,1,1,1,1,1,1,1,1,1,1,1,1,1,1,1,1,1,1,1,1,21,22,60,60,60,60,75,75,75,75,75,75,75,75,60,60,60,60,1,1,1,1,1,1,1,
1,1,1,1,1,1,1,1,1,1,1,1,1,1,1,1,1,1,1,1,1,1,1,1,1,21,22,60,60,60,60,1,1,1,1,1,1,1,1,60,60,60,60,1,1,1,1,1,1,1,
60,60,60,60,60,60,60,60,60,60,60,60,60,60,60,60,60,60,60,60,60,60,60,60,60,60,60,60,60,60,60,1,1,1,1,1,1,1,1,60,60,60,60,60,60,60,60,60,60,60,
60,60,60,60,60,60,60,60,60,60,60,60,60,60,60,60,60,60,60,60,60,60,60,60,60,60,60,60,60,60,60,1,1,1,1,1,1,1,1,60,60,60,60,60,60,60,60,60,60,60
</data>
 </layer>
</map>
